!! 00046] TT[KA
!! NN
!!!OTL: Xi shan diao
!!!ARE: Yunnan, Eryuan
!! Ethnic Group: Bai
!! II, 38
!!!SCT: C0205
!!!YEM: Copyright 1995, estate of Helmut Schaffrath.
**kern
*ICvox
*Ivox
!! Mixed meters:  2/4; 3/4
*M3/4
*k[f#]
*G:
{8b
8b
8dd
8dd
8b
8dd
=1
8gg
[4.ee
4ee]
=2
16gg
[8.gg
4gg]
8bb
8r}
=3
*M2/4
{8b
8b
8ee
8ee
=4
8ee
8ee
16dd
16b
8dd
=5
8g
8a
8b
16b
16dd
=6
8.a
16g
8e
8e
=7
4e
4r}
=8
{8b
8b
8dd
8dd
=9
8b
8dd
8gg
8ee
=10
[2ee
=11
*M3/4
2ee]
16dd
16b
8dd}
=12
*M2/4
{8dd
8dd
8b
8b
=13
8g
8b
8.a
16g}
=14
{8b
8b
8ee
8ee
=15
8gg
8ee
16dd
16b
8dd
=16
8g
8a
8b
16b
16dd
=17
8.a
16g
8e
8e
=18
4e
4r}
=19
*M3/4
{8b
8b
8dd
8dd
8b
8dd
=20
*M2/4
[2ee
=21
2ee]}
=22
{8b
8b
8ee
8ee
=23
8ee
8ee
16dd
16b
8dd
=24
8g
8a
8b
16b
16dd
=25
8.a
16g
8e
8e
=26
4e
4r}
=27
{8b
8b
8dd
8dd
=28
8b
8dd
8gg
8ee
=29
[2ee
=30
4ee]
16dd
16b
8dd}
=31
{8dd
8dd
8b
8b
=32
8g
8b
8.a
16g}
=33
{8b
8b
8ee
8ee
=34
8gg
8ee
16dd
16b
8dd
=35
8g
8a
8b
16b
16dd
=36
2a
=37
16e
[8.e
4e]
=38
4e
4r}
==
!!!AGN: Shange, Xishan diao. Xinminge
!! sehr bekannt. Wird in einem chines. Film zitiert.
!!    Wenig Verzierungen und Glissandi. Zwischenspiele weggelassen.
!!    Zwei Takte (2/4) auf Fuellwoerter gesprochen beenden das Lied.
!!!ONB: ESAC (Essen Associative Code) Database: CHINA
!!!AMT: irregular
!!!AIN: vox
!!!EED: Helmut Schaffrath
!!!EEV: 1.0
*-
!!!ONB: Tied note syntax fixed by Craig Sapp, 2004/05/03/
